assets/Yo-yo/Flat/yo-yo_flat.svg

<svg width="32" height="32" viewBox="0 0 32 32" fill="none" xmlns="http://www.w3.org/2000/svg">
<path d="M27 20.4949C27 15.3548 23.0337 11.1734 18.0759 11.0102L14.3575 11V11.1938C10.1631 12.0811 7 15.9056 7 20.4949C7 25.0843 10.1532 28.8986 14.3575 29.796V29.9898H17.5702C17.6396 29.9898 17.709 30 17.7784 30C17.8478 30 17.9172 30 17.9866 29.9898H18.0759C23.0238 29.8164 27 25.635 27 20.4949Z" fill="#8D65C5"/>
<path d="M17 30C21.9706 30 26 25.7467 26 20.5C26 15.2533 21.9706 11 17 11C12.0294 11 8 15.2533 8 20.5C8 25.7467 12.0294 30 17 30Z" fill="#433B6B"/>
<path d="M15.0082 4.25C15.0082 3.28801 15.788 2.50817 16.75 2.50817C17.712 2.50817 18.4918 3.28801 18.4918 4.25C18.4918 5.21199 17.712 5.99183 16.75 5.99183C15.788 5.99183 15.0082 5.21199 15.0082 4.25ZM16.75 1.5C15.2312 1.5 14 2.73122 14 4.25C14 5.76878 15.2312 7 16.75 7C18.0893 7 19.2049 6.04265 19.45 4.77497C21.6543 4.78032 23.435 6.5643 23.435 8.76997C23.435 10.979 21.649 12.765 19.44 12.765V13.775C22.2068 13.775 24.445 11.5368 24.445 8.76997C24.445 6.00897 22.2162 3.77432 19.4574 3.76498C19.2283 2.47752 18.1033 1.5 16.75 1.5Z" fill="#FFB02E"/>
<path d="M25 20.4949C25 15.3548 20.9162 11.1734 15.8114 11.0102L13.5755 11V11.1938C9.25685 12.0811 6 15.9056 6 20.4949C6 25.0843 9.24664 28.8986 13.5755 29.796V29.9898H15.2907C15.3622 29.9898 15.4336 30 15.5051 30C15.5766 30 15.648 30 15.7195 29.9898H15.8114C20.9162 29.8164 25 25.635 25 20.4949Z" fill="#BCA4EB"/>
<path d="M23 20.5C23 25.7467 18.7467 30 13.5 30C8.25329 30 4 25.7467 4 20.5C4 15.2533 8.25329 11 13.5 11C18.7467 11 23 15.2533 23 20.5ZM13.5 15.1997C16.4206 15.1997 18.8003 17.5794 18.8003 20.5C18.8003 23.4206 16.4206 25.8003 13.5 25.8003C10.5794 25.8003 8.1997 23.4206 8.1997 20.5C8.1997 17.5794 10.5696 15.1997 13.5 15.1997ZM13.5 14C9.91074 14 7 16.9108 7 20.5C7 24.0893 9.91074 27 13.5 27C17.0893 27 20 24.0893 20 20.5C20 16.9108 17.0893 14 13.5 14ZM13.9115 17.7711C13.7338 17.4097 13.2475 17.4097 13.0885 17.7711L12.518 18.9693C12.4525 19.112 12.3216 19.2166 12.1719 19.2356L10.9 19.4258C10.5166 19.4828 10.3669 19.9774 10.6381 20.2531L11.5173 21.1471C11.6482 21.2802 11.695 21.4799 11.6295 21.6606L11.218 22.8493C11.0871 23.2487 11.4705 23.6291 11.8446 23.458L13.313 22.7923C13.4345 22.7352 13.5655 22.7352 13.687 22.7923L15.1554 23.458C15.5295 23.6291 15.9223 23.2487 15.782 22.8493L15.3705 21.6606C15.305 21.4799 15.3518 21.2802 15.4827 21.1471L16.3619 20.2531C16.6331 19.9678 16.4834 19.4828 16.1 19.4258L14.8281 19.2356C14.6784 19.2071 14.5475 19.112 14.482 18.9693L13.9115 17.7711Z" fill="#8D65C5"/>
</svg>

<svg xmlns="http://www.w3.org/2000/svg" width="32" height="32" fill="none"><path fill="#8D65C5" d="M27 20.495c0-5.14-3.966-9.322-8.924-9.485L14.357 11v.194C10.163 12.08 7 15.906 7 20.494c0 4.59 3.153 8.405 7.357 9.302v.194h3.213c.07 0 .139.01.208.01.07 0 .14 0 .209-.01h.089C23.024 29.816 27 25.635 27 20.495Z"/><path fill="#433B6B" d="M17 30c4.97 0 9-4.253 9-9.5S21.97 11 17 11s-9 4.253-9 9.5 4.03 9.5 9 9.5Z"/><path fill="#FFB02E" d="M15.008 4.25a1.742 1.742 0 1 1 3.484 0 1.742 1.742 0 0 1-3.484 0ZM16.75 1.5a2.75 2.75 0 1 0 2.7 3.275 3.992 3.992 0 0 1 3.985 3.995 3.992 3.992 0 0 1-3.995 3.995v1.01a5.002 5.002 0 0 0 5.005-5.005 5.002 5.002 0 0 0-4.988-5.005A2.75 2.75 0 0 0 16.75 1.5Z"/><path fill="#BCA4EB" d="M25 20.495c0-5.14-4.084-9.322-9.189-9.485L13.575 11v.194C9.258 12.08 6 15.906 6 20.494c0 4.59 3.247 8.405 7.575 9.302v.194h1.716c.071 0 .143.01.214.01.072 0 .143 0 .214-.01h.092C20.916 29.816 25 25.635 25 20.495Z"/><path fill="#8D65C5" d="M23 20.5a9.5 9.5 0 1 1-19 0 9.5 9.5 0 0 1 19 0Zm-9.5-5.3c2.92 0 5.3 2.38 5.3 5.3s-2.38 5.3-5.3 5.3-5.3-2.38-5.3-5.3 2.37-5.3 5.3-5.3Zm0-1.2a6.5 6.5 0 1 0 .002 13.002A6.5 6.5 0 0 0 13.5 14Zm.412 3.771c-.178-.361-.665-.361-.824 0l-.57 1.198a.453.453 0 0 1-.346.267l-1.272.19c-.383.057-.533.551-.262.827l.88.894c.13.133.177.333.111.514l-.411 1.188c-.13.4.252.78.627.609l1.468-.666a.43.43 0 0 1 .374 0l1.468.666c.375.171.767-.21.627-.609l-.412-1.188a.494.494 0 0 1 .113-.514l.879-.894c.271-.285.121-.77-.262-.827l-1.272-.19a.475.475 0 0 1-.346-.267l-.57-1.198Z"/></svg>
